src/static/images/hessenschau.svg

<svg width="233" height="30" viewBox="0 0 233 30" version="1.1" xmlns="http://www.w3.org/2000/svg" xmlns:xlink="http://www.w3.org/1999/xlink">
<title>hessenschau</title>
<desc>Created using Figma</desc>
<g id="Canvas" transform="translate(527 -19)">
<g id="hessenschau">
<g id="Group">
<g id="g10">
<g id="g12">
<g id="g14">
<g id="g16">
<g id="path22">
<use xlink:href="#path0_fill" transform="translate(-463.376 27.698)" fill="#BDBDBD"/>
</g>
<g id="path24">
<use xlink:href="#path1_fill" transform="translate(-483.859 27.698)" fill="#BDBDBD"/>
</g>
<g id="path26">
<use xlink:href="#path2_fill" transform="translate(-504.835 27.6966)" fill="#BDBDBD"/>
</g>
<g id="path28">
<use xlink:href="#path3_fill" transform="translate(-376.644 27.6966)" fill="#BDBDBD"/>
</g>
<g id="path30">
<use xlink:href="#path4_fill" transform="translate(-442.154 27.6966)" fill="#BDBDBD"/>
</g>
<g id="path32">
<use xlink:href="#path5_fill" transform="translate(-334.119 27.6966)" fill="#BDBDBD"/>
</g>
<g id="path34">
<use xlink:href="#path6_fill" transform="translate(-398.071 27.698)" fill="#BDBDBD"/>
</g>
<g id="path36">
<use xlink:href="#path7_fill" transform="translate(-527 19)" fill="#BDBDBD"/>
</g>
<g id="path38">
<use xlink:href="#path8_fill" transform="translate(-355.793 19)" fill="#BDBDBD"/>
</g>
<g id="path40">
<use xlink:href="#path9_fill" transform="translate(-311.298 27.9305)" fill="#BDBDBD"/>
</g>
<g id="path42">
<use xlink:href="#path10_fill" transform="translate(-419.374 27.679)" fill="#BDBDBD"/>
</g>
</g>
</g>
</g>
</g>
</g>
</g>
</g>
<defs>
<path id="path0_fill" d="M 11.2055 8.82403L 7.92116 8.53668C 5.70534 8.33134 5.04801 7.38789 5.04801 6.15513C 5.04801 4.59627 6.32037 3.48769 8.82451 3.48769C 10.7949 3.48769 12.6416 3.89824 13.9555 5.00694L 16.5825 2.33939C 14.6532 0.655005 11.9851 -2.96541e-07 8.86607 -2.96541e-07C 4.51462 -2.96541e-07 1.02546 2.29746 1.02546 6.36193C 1.02546 10.0143 3.28283 11.7808 7.18303 12.1079L 10.5075 12.3953C 12.5194 12.5591 13.2982 13.4624 13.2982 14.8565C 13.2982 16.8274 11.2871 17.7317 8.74141 17.7317C 6.68937 17.7317 4.43297 17.2795 2.74907 15.5569L 5.03311e-08 18.306C 2.46124 20.7281 5.33487 21.302 8.74141 21.302C 13.7087 21.302 17.4032 19.0446 17.4032 14.6942C 17.4032 11.0002 15.1048 9.15109 11.2055 8.82403"/>
<path id="path1_fill" d="M 11.2064 8.82403L 7.92214 8.53668C 5.70632 8.33134 5.04899 7.38789 5.04899 6.15513C 5.04899 4.59627 6.32136 3.48769 8.82599 3.48769C 10.7959 3.48769 12.6431 3.89824 13.9556 5.00694L 16.583 2.33939C 14.6545 0.655005 11.9866 -2.96541e-07 8.86559 -2.96541e-07C 4.5161 -2.96541e-07 1.02694 2.29746 1.02694 6.36193C 1.02694 10.0143 3.28382 11.7808 7.18402 12.1079L 10.5089 12.3953C 12.5204 12.5591 13.2992 13.4624 13.2992 14.8565C 13.2992 16.8274 11.2886 17.7317 8.74434 17.7317C 6.69182 17.7317 4.43298 17.2795 2.75006 15.5569L 4.31947e-09 18.306C 2.46406 20.7281 5.33634 21.302 8.74434 21.302C 13.7102 21.302 17.4046 19.0446 17.4046 14.6942C 17.4046 11.0002 15.1053 9.15109 11.2064 8.82403"/>
<path id="path2_fill" d="M 8.82599 1.33246e-07C 3.48953 1.33246e-07 1.01414e-08 3.89971 1.01414e-08 10.6317C 1.01414e-08 18.5548 4.14612 21.3034 9.36023 21.3034C 13.0135 21.3034 15.0241 20.1958 17.1592 18.0631L 14.4912 15.5584C 13.0135 17.0351 11.7813 17.6916 9.44188 17.6916C 6.03437 17.6916 4.14612 15.4333 4.14612 11.8635L 17.651 11.8635L 17.651 10.0158C 17.651 4.10456 14.4091 1.33246e-07 8.82599 1.33246e-07L 8.82599 1.33246e-07ZM 4.14612 8.94821C 4.18755 7.67634 4.27066 7.06045 4.68036 6.11601C 5.33781 4.55716 6.85597 3.49013 8.82599 3.49013C 10.7964 3.49013 12.2741 4.55716 12.9314 6.11601C 13.3406 7.06045 13.4643 7.67634 13.5049 8.94821L 4.14612 8.94821"/>
<path id="path3_fill" d="M 9.27687 3.73605C 10.9184 3.73605 11.945 4.26981 13.259 5.70693L 16.1325 2.91482C 14.161 0.821228 12.1504 1.33246e-07 9.27687 1.33246e-07C 4.59809 1.33246e-07 -8.11308e-08 2.83269 -8.11308e-08 10.6317C -8.11308e-08 18.4302 4.59809 21.3034 9.27687 21.3034C 12.1504 21.3034 14.161 20.4417 16.1325 18.3481L 13.259 15.599C 11.945 17.0351 10.9184 17.5689 9.27687 17.5689C 7.67696 17.5689 6.32148 16.9134 5.41824 15.7207C 4.51377 14.5715 4.18743 13.0533 4.18743 10.6317C 4.18743 8.21107 4.51377 6.73191 5.41824 5.58275C 6.32148 4.39252 7.67696 3.73605 9.27687 3.73605Z"/>
<path id="path4_fill" d="M 8.82501 1.33246e-07C 3.48818 1.33246e-07 2.017e-07 3.89971 2.017e-07 10.6317C 2.017e-07 18.5548 4.14611 21.3034 9.35876 21.3034C 13.0107 21.3034 15.0227 20.1958 17.1568 18.0631L 14.4899 15.5584C 13.0107 17.0351 11.7804 17.6916 9.43942 17.6916C 6.03437 17.6916 4.14611 15.4333 4.14611 11.8635L 17.6505 11.8635L 17.6505 10.0158C 17.6505 4.10456 14.4068 1.33246e-07 8.825 1.33246e-07L 8.82501 1.33246e-07ZM 4.14611 8.94821C 4.18571 7.67634 4.26834 7.06045 4.67889 6.11601C 5.33634 4.55716 6.85413 3.49013 8.825 3.49013C 10.7949 3.49013 12.2726 4.55716 12.9291 6.11601C 13.3406 7.06045 13.4628 7.67634 13.5044 8.94821L 4.14611 8.94821"/>
<path id="path5_fill" d="M 8.29175 1.33246e-07C 4.84379 1.33246e-07 2.79162 0.698514 0.820135 2.99745L 3.5714 5.58275C 4.72033 4.10456 5.82891 3.57129 8.12796 3.57129C 11.3694 3.57129 12.6845 4.84365 12.6845 7.47051L 12.6845 8.94821L 7.18318 8.94821C 2.42249 8.94821 -1.08174e-07 11.4529 -1.08174e-07 14.9415C -1.08174e-07 16.7057 0.574442 18.3075 1.64147 19.4152C 2.91383 20.6861 4.63842 21.3034 7.2247 21.3034C 9.80976 21.3034 11.2471 20.6861 12.7651 19.1707L 12.7651 21.0585L 16.8707 21.0585L 16.8707 7.14258C 16.8707 2.42213 13.9972 1.33246e-07 8.29173 1.33246e-07L 8.29175 1.33246e-07ZM 12.6845 13.545C 12.6845 15.0227 12.396 16.0086 11.7812 16.626C 10.6727 17.6916 9.48219 17.8143 7.88105 17.8143C 5.25444 17.8143 4.06396 16.7477 4.06396 14.8594C 4.06396 12.9707 5.33632 11.8635 7.79914 11.8635L 12.6845 11.8635L 12.6845 13.545"/>
<path id="path6_fill" d="M 11.2068 8.82403L 7.92262 8.53668C 5.70667 8.33134 5.05032 7.38789 5.05032 6.15513C 5.05032 4.59627 6.3227 3.48769 8.82585 3.48769C 10.7949 3.48769 12.6442 3.89824 13.9569 5.00694L 16.5835 2.33939C 14.6548 0.655005 11.9866 -2.96541e-07 8.86741 -2.96541e-07C 4.51621 -2.96541e-07 1.02668 2.29746 1.02668 6.36193C 1.02668 10.0143 3.28418 11.7808 7.18437 12.1079L 10.5089 12.3953C 12.5207 12.5591 13.3005 13.4624 13.3005 14.8565C 13.3005 16.8274 11.2887 17.7317 8.74397 17.7317C 6.6906 17.7317 4.43432 17.2795 2.75005 15.5569L 8.78917e-08 18.306C 2.46282 20.7281 5.33755 21.302 8.74397 21.302C 13.7112 21.302 17.4048 19.0446 17.4048 14.6942C 17.4048 11.0002 15.1058 9.15109 11.2068 8.82403"/>
<path id="path7_fill" d="M 4.37814 2.12259e-06L 4.37814 9.38651C 4.37814 9.38651 7.38267 8.77294 10.0253 8.80069C 14.415 8.84225 16.6145 11.1601 16.7696 14.1824C 16.8084 14.951 16.8012 15.376 16.8012 16.2019L 16.8012 29.7541L 12.17 29.7541L 12.17 15.9427C 12.17 14.4139 12.2693 12.5176 8.77107 12.5328C 6.28026 12.5438 4.51899 13.0127 4.51899 13.0127L 4.51899 29.7541L -2.04967e-15 29.7541L -2.04967e-15 0.281607L 4.37814 -7.82199e-08"/>
<path id="path8_fill" d="M 4.37808 2.12259e-06L 4.37808 9.38651C 4.37808 9.38651 7.38358 8.77294 10.0261 8.80069C 14.4164 8.84225 16.614 11.1601 16.7705 14.1824C 16.8108 14.951 16.801 15.376 16.801 16.2019L 16.801 29.7541L 12.1699 29.7541L 12.1699 15.9427C 12.1699 14.4139 12.2702 12.5176 8.77086 12.5328C 6.27868 12.5438 4.52109 13.0127 4.52109 13.0127L 4.52109 29.7541L -3.75605e-08 29.7541L -3.75605e-08 0.281607L 4.37808 -7.82199e-08"/>
<path id="path9_fill" d="M 16.8798 -9.54038e-08L 16.8798 13.2815C 16.8798 15.6162 17.4995 21.0681 8.44389 21.0681C -0.614217 21.0681 0.00912386 15.6162 0.00912386 13.2815L 0.00912386 -9.54038e-08L 4.19656 -9.54038e-08L 4.19656 12.6642C 4.19656 15.8329 5.5667 17.2524 8.44389 17.2953C 11.5582 17.208 12.6924 15.8329 12.6924 12.6642L 12.6924 -9.54038e-08L 16.8798 -9.54038e-08"/>
<path id="path10_fill" d="M 0.0090304 21.0752L 0.0090304 7.78793C 0.0090304 5.45331 -0.612115 2.02827e-08 8.44878 2.02827e-08C 17.5093 2.02827e-08 16.8872 5.45331 16.8872 7.78793L 16.8872 21.0752L 12.6971 21.0752L 12.6971 8.40626C 12.6971 5.23514 11.3244 3.81561 8.44878 3.77418C 5.33205 3.85864 4.19755 5.23514 4.19755 8.40626L 4.19755 21.0752L 0.0090304 21.0752Z"/>
</defs>
</svg>

<svg width="233" height="30" viewBox="0 0 233 30" xmlns="http://www.w3.org/2000/svg" xmlns:xlink="http://www.w3.org/1999/xlink"><title>hessenschau</title><desc>Created using Figma</desc><use xlink:href="#a" transform="translate(63.624 8.698)" fill="#BDBDBD"/><use xlink:href="#b" transform="translate(43.141 8.698)" fill="#BDBDBD"/><use xlink:href="#c" transform="translate(22.165 8.697)" fill="#BDBDBD"/><use xlink:href="#d" transform="translate(150.356 8.697)" fill="#BDBDBD"/><use xlink:href="#e" transform="translate(84.846 8.697)" fill="#BDBDBD"/><use xlink:href="#f" transform="translate(192.881 8.697)" fill="#BDBDBD"/><use xlink:href="#g" transform="translate(128.929 8.698)" fill="#BDBDBD"/><use xlink:href="#h" fill="#BDBDBD"/><use xlink:href="#i" transform="translate(171.207)" fill="#BDBDBD"/><use xlink:href="#j" transform="translate(215.702 8.93)" fill="#BDBDBD"/><use xlink:href="#k" transform="translate(107.626 8.679)" fill="#BDBDBD"/><defs><path id="a" d="M11.206 8.824L7.92 8.537c-2.216-.206-2.873-1.15-2.873-2.382 0-1.559 1.272-2.667 3.777-2.667 1.97 0 3.817.41 5.13 1.519l2.627-2.668C14.653.655 11.985 0 8.866 0c-4.351 0-7.84 2.297-7.84 6.362 0 3.652 2.257 5.419 6.157 5.746l3.325.287c2.011.164 2.79 1.067 2.79 2.462 0 1.97-2.01 2.875-4.557 2.875-2.052 0-4.308-.453-5.992-2.175L0 18.306c2.461 2.422 5.335 2.996 8.741 2.996 4.968 0 8.662-2.257 8.662-6.608 0-3.694-2.298-5.543-6.197-5.87"/><path id="b" d="M11.206 8.824l-3.284-.287C5.706 8.33 5.05 7.387 5.05 6.155c0-1.559 1.272-2.667 3.777-2.667 1.97 0 3.817.41 5.13 1.519l2.627-2.668C14.655.655 11.987 0 8.866 0c-4.35 0-7.84 2.297-7.84 6.362 0 3.652 2.258 5.419 6.158 5.746l3.325.287c2.011.164 2.79 1.067 2.79 2.462 0 1.97-2.01 2.875-4.555 2.875-2.052 0-4.311-.453-5.994-2.175L0 18.306c2.464 2.422 5.336 2.996 8.744 2.996 4.966 0 8.66-2.257 8.66-6.608 0-3.694-2.299-5.543-6.198-5.87"/><path id="c" d="M8.826 0C3.49 0 0 3.9 0 10.632c0 7.923 4.146 10.671 9.36 10.671 3.654 0 5.664-1.107 7.8-3.24l-2.669-2.505c-1.477 1.477-2.71 2.134-5.05 2.134-3.407 0-5.295-2.259-5.295-5.829h13.505v-1.847C17.651 4.105 14.409 0 8.826 0zm-4.68 8.948c.042-1.272.125-1.888.534-2.832.658-1.559 2.176-2.626 4.146-2.626 1.97 0 3.448 1.067 4.105 2.626.41.944.533 1.56.574 2.832H4.146"/><path id="d" d="M9.277 3.736c1.641 0 2.668.534 3.982 1.97l2.873-2.791C14.162.82 12.15 0 9.277 0 4.598 0 0 2.833 0 10.632c0 7.798 4.598 10.671 9.277 10.671 2.873 0 4.884-.861 6.856-2.955L13.258 15.6c-1.314 1.436-2.34 1.97-3.982 1.97-1.6 0-2.956-.656-3.859-1.848-.904-1.15-1.23-2.668-1.23-5.09 0-2.42.326-3.9 1.23-5.048.903-1.19 2.259-1.847 3.859-1.847z"/><path id="e" d="M8.825 0C3.488 0 0 3.9 0 10.632c0 7.923 4.146 10.671 9.359 10.671 3.652 0 5.664-1.107 7.798-3.24l-2.667-2.505c-1.48 1.477-2.71 2.134-5.05 2.134-3.406 0-5.294-2.259-5.294-5.829h13.505v-1.847C17.65 4.105 14.407 0 8.825 0zM4.146 8.948c.04-1.272.122-1.888.533-2.832.657-1.559 2.175-2.626 4.146-2.626 1.97 0 3.448 1.067 4.104 2.626.412.944.534 1.56.575 2.832H4.146"/><path id="f" d="M8.292 0C4.844 0 2.792.699.82 2.997l2.751 2.586C4.721 4.105 5.83 3.57 8.128 3.57c3.241 0 4.556 1.273 4.556 3.9v1.477h-5.5C2.421 8.948 0 11.453 0 14.941c0 1.765.574 3.367 1.641 4.474 1.273 1.271 2.997 1.888 5.584 1.888 2.585 0 4.022-.617 5.54-2.132v1.887h4.106V7.143C16.87 2.423 13.997 0 8.29 0zm4.393 13.545c0 1.478-.289 2.464-.904 3.081-1.108 1.066-2.299 1.188-3.9 1.188-2.627 0-3.817-1.066-3.817-2.955 0-1.888 1.272-2.995 3.735-2.995h4.885v1.681"/><path id="g" d="M11.207 8.824l-3.284-.287C5.707 8.33 5.05 7.387 5.05 6.155c0-1.559 1.273-2.667 3.776-2.667 1.969 0 3.818.41 5.13 1.519l2.628-2.668C14.654.655 11.986 0 8.867 0c-4.35 0-7.84 2.297-7.84 6.362 0 3.652 2.257 5.419 6.157 5.746l3.325.287c2.012.164 2.791 1.067 2.791 2.462 0 1.97-2.011 2.875-4.556 2.875-2.053 0-4.31-.453-5.994-2.175L0 18.306c2.463 2.422 5.338 2.996 8.744 2.996 4.967 0 8.66-2.257 8.66-6.608 0-3.694-2.298-5.543-6.197-5.87"/><path id="h" d="M4.378 0v9.387s3.005-.614 5.647-.586c4.39.041 6.59 2.36 6.745 5.381.038.769.031 1.194.031 2.02v13.552H12.17V15.943c0-1.53.1-3.425-3.399-3.41-2.49.01-4.252.48-4.252.48v16.741H0V.282L4.378 0"/><path id="i" d="M4.378 0v9.387s3.006-.614 5.648-.586c4.39.041 6.588 2.36 6.744 5.381.04.769.031 1.194.031 2.02v13.552H12.17V15.943c0-1.53.1-3.425-3.4-3.41-2.491.01-4.249.48-4.249.48v16.741H0V.282L4.378 0"/><path id="j" d="M16.88 0v13.281c0 2.335.62 7.787-8.436 7.787-9.058 0-8.435-5.452-8.435-7.787V0h4.188v12.664c0 3.169 1.37 4.588 4.247 4.631 3.114-.087 4.248-1.462 4.248-4.63V0h4.188"/><path id="k" d="M.009 21.075V7.788C.009 5.453-.612 0 8.449 0c9.06 0 8.438 5.453 8.438 7.788v13.287h-4.19V8.406c0-3.17-1.373-4.59-4.248-4.632-3.117.085-4.251 1.461-4.251 4.632v12.67H.009z"/></defs></svg>
